svg/business/currency_cny_2_line.svg

<?xml version="1.0" encoding="UTF-8"?>
<svg width="24px" height="24px" viewBox="0 0 24 24" version="1.1" xmlns="http://www.w3.org/2000/svg" xmlns:xlink="http://www.w3.org/1999/xlink">
    <title>currency_cny_2_line</title>
    <g id="页面-1" stroke="none" stroke-width="1" fill="none" fill-rule="evenodd">
        <g id="Business" transform="translate(-48.000000, -288.000000)" fill-rule="nonzero">
            <g id="currency_cny_2_line" transform="translate(48.000000, 288.000000)">
                <path d="M24,0 L24,24 L0,24 L0,0 L24,0 Z M12.5934901,23.257841 L12.5819402,23.2595131 L12.5108777,23.2950439 L12.4918791,23.2987469 L12.4918791,23.2987469 L12.4767152,23.2950439 L12.4056548,23.2595131 C12.3958229,23.2563662 12.3870493,23.2590235 12.3821421,23.2649074 L12.3780323,23.275831 L12.360941,23.7031097 L12.3658947,23.7234994 L12.3769048,23.7357139 L12.4804777,23.8096931 L12.4953491,23.8136134 L12.4953491,23.8136134 L12.5071152,23.8096931 L12.6106902,23.7357139 L12.6232938,23.7196733 L12.6232938,23.7196733 L12.6266527,23.7031097 L12.609561,23.275831 C12.6075724,23.2657013 12.6010112,23.2592993 12.5934901,23.257841 L12.5934901,23.257841 Z M12.8583906,23.1452862 L12.8445485,23.1473072 L12.6598443,23.2396597 L12.6498822,23.2499052 L12.6498822,23.2499052 L12.6471943,23.2611114 L12.6650943,23.6906389 L12.6699349,23.7034178 L12.6699349,23.7034178 L12.678386,23.7104931 L12.8793402,23.8032389 C12.8914285,23.8068999 12.9022333,23.8029875 12.9078286,23.7952264 L12.9118235,23.7811639 L12.8776777,23.1665331 C12.8752882,23.1545897 12.8674102,23.1470016 12.8583906,23.1452862 L12.8583906,23.1452862 Z M12.1430473,23.1473072 C12.1332178,23.1423925 12.1221763,23.1452606 12.1156365,23.1525954 L12.1099173,23.1665331 L12.0757714,23.7811639 C12.0751323,23.7926639 12.0828099,23.8018602 12.0926481,23.8045676 L12.108256,23.8032389 L12.3092106,23.7104931 L12.3186497,23.7024347 L12.3186497,23.7024347 L12.3225043,23.6906389 L12.340401,23.2611114 L12.337245,23.2485176 L12.337245,23.2485176 L12.3277531,23.2396597 L12.1430473,23.1473072 Z" id="MingCute" fill-rule="nonzero"></path>
                <path d="M7.84813,3.47013 C7.55542,3.0018 6.93847,2.85943 6.47013,3.15214 C6.0018,3.44485 5.85943,4.0618 6.15214,4.53013 L10.1959,11.0001 L7.00006,11.0001 C6.44777,11.0001 6.00000351,11.4478 6.00000351,12.0001 C6.00000351,12.5524 6.44777,13.0001 7.00006,13.0001 L11.0001,13.0001 L11.0001,15.0001 L7.00007,15.0001 C6.44779,15.0001 6.00000351,15.4479 6.00000351,16.0001 C6.00000351,16.5524 6.44779,17.0001 7.00007,17.0001 L11.0001,17.0001 L11.0001,20.0001 C11.0001,20.5524 11.4478,21.0001 12.0001,21.0001 C12.5524,21.0001 13.0001,20.5524 13.0001,20.0001 L13.0001,17.0001 L17.0001,17.0001 C17.5524,17.0001 18.0001,16.5524 18.0001,16.0001 C18.0001,15.4479 17.5524,15.0001 17.0001,15.0001 L13.0001,15.0001 L13.0001,13.0001 L17.0001,13.0001 C17.5523,13.0001 18.0001,12.5524 18.0001,12.0001 C18.0001,11.4478 17.5523,11.0001 17.0001,11.0001 L13.8044,11.0001 L17.8481,4.53013 C18.1408,4.0618 17.9985,3.44485 17.5301,3.15214 C17.0618,2.85943 16.4448,3.0018 16.1521,3.47013 L12.0001,10.1133 L7.84813,3.47013 Z" id="路径" fill="#09244B"></path>
            </g>
        </g>
    </g>
</svg>

<svg xmlns="http://www.w3.org/2000/svg" width="24" height="24"><g fill="none" fill-rule="nonzero"><path d="M24 0v24H0V0zM12.593 23.258l-.011.002-.071.035-.02.004-.014-.004-.071-.035c-.01-.004-.019-.001-.024.005l-.004.01-.017.428.005.02.01.013.104.074.015.004.012-.004.104-.074.012-.016.004-.017-.017-.427c-.002-.01-.009-.017-.017-.018m.265-.113-.013.002-.185.093-.01.01-.003.011.018.43.005.012.008.007.201.093c.012.004.023 0 .029-.008l.004-.014-.034-.614c-.003-.012-.01-.02-.02-.022m-.715.002a.023.023 0 0 0-.027.006l-.006.014-.034.614c0 .012.007.02.017.024l.015-.002.201-.093.01-.008.004-.011.017-.43-.003-.012-.01-.01z"/><path fill="#09244B" d="M7.848 3.47a1 1 0 0 0-1.696 1.06L10.196 11H7a1 1 0 1 0 0 2h4v2H7a1 1 0 0 0 0 2h4v3a1 1 0 1 0 2 0v-3h4a1 1 0 1 0 0-2h-4v-2h4a1 1 0 0 0 0-2h-3.196l4.044-6.47a1 1 0 1 0-1.696-1.06L12 10.113z"/></g></svg>
